assets/numpy/plain.svg

<svg viewBox="0 0 128 128" xmlns="http://www.w3.org/2000/svg"><path d="m64.113 0-20.513 10.24 21.37 10.774 19.884-10.614-20.74-10.4zm-30.48 15.217-23.479 11.71 21.969 11.03 22.889-11.951-21.38-10.79zm61.135.158-20.034 10.563 22.466 11.334 20.606-10.344-23.037-11.553zm-29.948 15.582-22.838 11.955 22 11.043 23.26-11.676zm-60.705 2.363v64.977l15.041 8.064v-33.98s20.477 39.348 20.688 39.781c.213.43 2.257 4.569 4.459 6.027 2.92 1.94 15.459 9.48 15.459 9.48l.008-65.952-16.918-8.512v36.766s-20.7-44.034-22.612-47.993c-.246-.512-1.263-1.07-1.521-1.209-3.732-1.947-14.604-7.449-14.604-7.449zm119.77.928-21.471 10.674.018 28.068 21.453-10.9zm-30.186 15.01-25.059 12.459v28.023l25.088-12.47-.028-28.012zm30.186 22.765-21.447 10.823.017 28.277 21.43-10.69zm-30.147 15.13-25.1 12.547v28.3l25.124-12.537z" fill="#4dabcf"/></svg>

<svg xmlns="http://www.w3.org/2000/svg" viewBox="0 0 128 128"><path fill="#4dabcf" d="M64.113 0 43.6 10.24l21.37 10.774L84.854 10.4 64.114 0zm-30.48 15.217-23.479 11.71 21.969 11.03 22.889-11.951zm61.135.158L74.734 25.938 97.2 37.272l20.606-10.344-23.037-11.553zM64.82 30.957 41.982 42.912l22 11.043 23.26-11.676zM4.115 33.32v64.977l15.041 8.064v-33.98s20.477 39.348 20.688 39.781c.213.43 2.257 4.569 4.459 6.027 2.92 1.94 15.459 9.48 15.459 9.48l.008-65.952-16.918-8.512v36.766s-20.7-44.034-22.612-47.993c-.246-.512-1.263-1.07-1.521-1.209-3.732-1.947-14.604-7.449-14.604-7.449m119.77.928-21.471 10.674.018 28.068 21.453-10.9zm-30.186 15.01L68.64 61.717V89.74l25.088-12.47zm30.186 22.765-21.447 10.823.017 28.277 21.43-10.69zm-30.147 15.13L68.638 99.7V128l25.124-12.537z"/></svg>
